X:112
T:The Outlandish Knight
T:Lady Isabel and the Elf Knight
C:Trad
B:Bronson
O:Sharp MSS., 3250/. Sung by Mrs. R. Hensley, Carmen,
O:N.C., August II, I9I6.
N:Lyrics not given in Bronson
M:4/4
L:1/4
K:Gmix % Pentatonic ( -4 -7) Lydian/Ionian/Mixolydian [Pi 1]
G | A A Hd A | B/B/ A/A/ G G |
A A d A | "*"B A2 G | A A Hd A |
"(a)"B A G B | A B/A/ G E | D E G B |
A B/A/ G E | D3 |]
%"(a)" B/A/ G/E/ G B ||
W:
W:* Sharp's MS. note: "This appoggiatura Mrs. H. called a 'warble.'"
